svg/color/euro.svg

<svg width="64" height="65" viewBox="0 0 64 65" fill="none" xmlns="http://www.w3.org/2000/svg">
<rect y="0.303711" width="64" height="64" rx="32" fill="#3036DA"/>
<rect x="0.5" y="0.803711" width="63" height="63" rx="31.5" stroke="#070B14" stroke-opacity="0.15"/>
<path d="M32.8812 43.3122C29.6428 43.3122 26.8056 41.1337 25.2646 37.8928H35.456V33.4014H24.0802C24.0519 33.038 24.0366 32.6741 24.0366 32.3024C24.0366 31.9342 24.0518 31.5658 24.0802 31.2074H35.4562V26.715H25.2647C26.8057 23.4744 29.6428 21.2966 32.8813 21.2966C35.9766 21.2966 38.8912 23.3675 40.4873 26.6988L44.5424 24.7617C42.1916 19.8517 37.7237 16.8037 32.8812 16.8037C29.2409 16.8037 25.8432 18.4662 23.3137 21.489C22.0416 23.0096 21.0695 24.7839 20.4305 26.715H15.5424V31.2073H19.574C19.5523 31.5681 19.5412 31.9366 19.5412 32.3023C19.5412 32.6718 19.5523 33.0356 19.574 33.4013H15.5424V37.8927H20.4305C21.0695 39.8236 22.0416 41.5959 23.3138 43.1152C25.8433 46.1381 29.241 47.8037 32.8813 47.8037C37.7239 47.8037 42.1916 44.7561 44.5424 39.8463L40.4873 37.9056C38.8911 41.2411 35.9765 43.3122 32.8812 43.3122Z" fill="white"/>
</svg>

<svg xmlns="http://www.w3.org/2000/svg" width="64" height="65" fill="none" viewBox="0 0 64 65"><rect width="64" height="64" y=".304" fill="#3036DA" rx="32"/><rect width="63" height="63" x=".5" y=".804" stroke="#070B14" stroke-opacity=".15" rx="31.5"/><path fill="#fff" d="M32.881 43.312c-3.238 0-6.075-2.178-7.616-5.42h10.191v-4.49H24.08a14 14 0 0 1 0-2.195h11.376v-4.492H25.265c1.54-3.24 4.378-5.418 7.616-5.418 3.096 0 6.01 2.07 7.606 5.402l4.055-1.937c-2.35-4.91-6.818-7.958-11.66-7.958-3.641 0-7.039 1.662-9.568 4.685a15.9 15.9 0 0 0-2.884 5.226h-4.888v4.492h4.032a18 18 0 0 0 0 2.194h-4.032v4.492h4.888a15.9 15.9 0 0 0 2.884 5.222c2.53 3.023 5.927 4.689 9.567 4.689 4.843 0 9.31-3.048 11.661-7.958l-4.055-1.94c-1.596 3.335-4.51 5.406-7.606 5.406"/></svg>
